X:36
T:marwnad yr heliwr
R:miniwet
N:dyma'n fras fel canws bob evans hi
Z:crm
M:3/2
L:1/2
Q:1/2=200
K:D
F/>E/|:Dd>c|d2A|d-d/f/2e/2c/|d2A|d>cB|A>GF|EGF|1E2F/>E/:||2E2D/E/||
FDE|F>GA|FDE|FGA|d>cB|A>GF|1GFE|F>zF:||2GF/2G/2E/2F/2|D2||
